X:1
T:Aulé, 76.76
T:Aulé, 76.76
T:Arranged by Elias Henry Johnson, 1883
T:Public Domain Courtesy of the Cyber Hymnal™
C:Arranged by Elias Henry Johnson, 1883
Z:Public Domain
Z:Courtesy of the Cyber Hymnal™
%%score ( 1 2 ) ( 3 4 )
L:1/8
Q:1/4=107
M:4/4
K:Bb
V:1 treble 
V:2 treble 
V:3 bass 
V:4 bass 
V:1
 ([B,D][CE]) | [DF]2 [EG]2 [DF]2 [DB]2 | [EB]2 [EA]4 (AB) | [Ec]2 [CE]2 [EG]2 [DF]2 | %4
 [B,D]4 z2 ([B,D][CE]) | [DF]2 [DF]2 [FB]2 [FA]2 | [FA]2 [EG]4 [EG]2 | [DF]2 [FB]2 [FA]2 [Ec]2 | %8
 [DB]4 z2 |] %9
V:2
 x2 | x8 | x6 E2 | x8 | x8 | x8 | x8 | x8 | x6 |] %9
V:3
 [B,,F,]2 | [B,,B,]2 [B,,B,]2 [B,,B,]2 [B,,F,]2 | [C,F,]2 [C,F,]4 (CB,) | %3
 [F,B,]2 [F,A,]2 [F,A,]2 [F,A,]2 | [B,,F,]4 z2 [B,,F,]2 | [B,,B,]2 [B,,B,]2 [B,,D]2 C2 | %6
 [E,C]2 [E,B,]4 [E,B,]2 | [F,B,]2 [F,D]2 [F,E]2 [F,A,]2 | [B,,B,]4 z2 |] %9
V:4
 x2 | x8 | x6 C,2 | x8 | x8 | x6 (C,D,) | x8 | x8 | x6 |] %9

